X:3
T:Benton's Dream
C:
R:reel
Z:transcribed to ABC by Debby Knight
M:C|
L:1/8
K:Amix
"A"[a6c6] e2|"G"[g6B6] f2|"A"e3f edcB|A3c BA^GB|
"A"A2 F2 EFAB|"E"=cBcB AFEF|"A"A3A- "E"AcB^G|[1"A"A3A- Ace^g:|[2 "A"A6 ||
|:F2|"G"G2BG AGBG|AB-BA B2D2|G2BG AGBG|AB-BA B2B2|
"A"A3A- Ace^g|a2 a2 =gedc|A3c "E"BA^GB |[1 "A"A6 :|[2"A"A3A- Ace^g||["final" "A"A8 |
%%text 

#include "LeftHeader.h"
% ---------- set 88 ----------
% Verret's (D) / Reel des Esquimaux (G) / Fleur de Mandragore (A)
%%text Set 88
%%vskip -1cm
%%scale .65
